icons/src/svg/chevron_left.svg

<svg width="32" height="32" viewBox="0 0 32 32" fill="none" xmlns="http://www.w3.org/2000/svg">
<path fill-rule="evenodd" clip-rule="evenodd" d="M22.2169 4.27336C22.6074 4.66389 22.6074 5.29705 22.2169 5.68758L12.3287 15.5757C12.0944 15.81 12.0944 16.1899 12.3287 16.4242L22.2169 26.3124C22.6074 26.7029 22.6074 27.3361 22.2169 27.7266C21.8263 28.1171 21.1932 28.1171 20.8027 27.7266L10.9145 17.8385C9.89917 16.8231 9.89917 15.1769 10.9145 14.1615L20.8027 4.27336C21.1932 3.88284 21.8263 3.88284 22.2169 4.27336Z" fill="#0D0F13"/>
</svg>

<svg fill="none" xmlns="http://www.w3.org/2000/svg" viewBox="0 0 32 32">
  <path fill-rule="evenodd" clip-rule="evenodd" d="M22.217 4.273a1 1 0 0 1 0 1.415l-9.888 9.888a.6.6 0 0 0 0 .848l9.888 9.888a1 1 0 0 1-1.414 1.415l-9.889-9.889a2.6 2.6 0 0 1 0-3.677l9.889-9.888a1 1 0 0 1 1.414 0Z" fill="currentColor"/>
</svg>
